static/img/kroki/85c5e3dd795f46d1b8ef13879dfbc2a0.svg

<?xml version="1.0" encoding="us-ascii" standalone="no"?><svg xmlns="http://www.w3.org/2000/svg" xmlns:xlink="http://www.w3.org/1999/xlink" contentStyleType="text/css" height="352px" preserveAspectRatio="none" style="width:415px;height:352px;" version="1.1" viewBox="0 0 415 352" width="415px" zoomAndPan="magnify"><defs/><g><!--class aws_sagemaker_app--><g id="elem_aws_sagemaker_app"><rect codeLine="23" fill="#3D176E" height="39.7891" id="aws_sagemaker_app" rx="2.5" ry="2.5" style="stroke:#000D19;stroke-width:0.5;" width="215" x="85.77" y="206.58"/><ellipse cx="100.77" cy="226.4745" fill="#ADD1B2" rx="11" ry="11" style="stroke:#181818;stroke-width:1.0;"/><path d="M103.7388,232.1152 Q103.1606,232.412 102.52,232.5527 Q101.8794,232.7089 101.1763,232.7089 Q98.6763,232.7089 97.3481,231.0683 Q96.0356,229.412 96.0356,226.287 Q96.0356,223.162 97.3481,221.5058 Q98.6763,219.8495 101.1763,219.8495 Q101.8794,219.8495 102.52,220.0058 Q103.1763,220.162 103.7388,220.4589 L103.7388,223.1777 Q103.1138,222.5995 102.52,222.3339 Q101.9263,222.0527 101.3013,222.0527 Q99.9575,222.0527 99.27,223.1308 Q98.5825,224.1933 98.5825,226.287 Q98.5825,228.3808 99.27,229.4589 Q99.9575,230.5214 101.3013,230.5214 Q101.9263,230.5214 102.52,230.2558 Q103.1138,229.9745 103.7388,229.3964 L103.7388,232.1152 Z " fill="#000000"/><text fill="#D9B8FF" font-family="Helvetica" font-size="17" lengthAdjust="spacing" textLength="173" x="119.77" y="232.3598">aws_sagemaker_app</text></g><!--class aws_sagemaker_domain--><g id="elem_aws_sagemaker_domain"><rect codeLine="26" fill="#3D176E" height="39.7891" id="aws_sagemaker_domain" rx="2.5" ry="2.5" style="stroke:#000D19;stroke-width:0.5;" width="248" x="69.27" y="7"/><ellipse cx="84.27" cy="26.8945" fill="#ADD1B2" rx="11" ry="11" style="stroke:#181818;stroke-width:1.0;"/><path d="M87.2388,32.5352 Q86.6606,32.832 86.02,32.9727 Q85.3794,33.1289 84.6763,33.1289 Q82.1763,33.1289 80.8481,31.4883 Q79.5356,29.832 79.5356,26.707 Q79.5356,23.582 80.8481,21.9258 Q82.1763,20.2695 84.6763,20.2695 Q85.3794,20.2695 86.02,20.4258 Q86.6763,20.582 87.2388,20.8789 L87.2388,23.5977 Q86.6138,23.0195 86.02,22.7539 Q85.4263,22.4727 84.8013,22.4727 Q83.4575,22.4727 82.77,23.5508 Q82.0825,24.6133 82.0825,26.707 Q82.0825,28.8008 82.77,29.8789 Q83.4575,30.9414 84.8013,30.9414 Q85.4263,30.9414 86.02,30.6758 Q86.6138,30.3945 87.2388,29.8164 L87.2388,32.5352 Z " fill="#000000"/><text fill="#D9B8FF" font-family="Helvetica" font-size="17" lengthAdjust="spacing" textLength="206" x="103.27" y="32.7798">aws_sagemaker_domain</text></g><!--class aws_sagemaker_image--><g id="elem_aws_sagemaker_image"><rect codeLine="29" fill="#3D176E" height="39.7891" id="aws_sagemaker_image" rx="2.5" ry="2.5" style="stroke:#000D19;stroke-width:0.5;" width="237" x="171.77" y="306.37"/><ellipse cx="186.77" cy="326.2645" fill="#ADD1B2" rx="11" ry="11" style="stroke:#181818;stroke-width:1.0;"/><path d="M189.7388,331.9052 Q189.1606,332.202 188.52,332.3427 Q187.8794,332.4989 187.1763,332.4989 Q184.6763,332.4989 183.3481,330.8583 Q182.0356,329.202 182.0356,326.077 Q182.0356,322.952 183.3481,321.2958 Q184.6763,319.6395 187.1763,319.6395 Q187.8794,319.6395 188.52,319.7958 Q189.1763,319.952 189.7388,320.2489 L189.7388,322.9677 Q189.1138,322.3895 188.52,322.1239 Q187.9263,321.8427 187.3013,321.8427 Q185.9575,321.8427 185.27,322.9208 Q184.5825,323.9833 184.5825,326.077 Q184.5825,328.1708 185.27,329.2489 Q185.9575,330.3114 187.3013,330.3114 Q187.9263,330.3114 188.52,330.0458 Q189.1138,329.7645 189.7388,329.1864 L189.7388,331.9052 Z " fill="#000000"/><text fill="#D9B8FF" font-family="Helvetica" font-size="17" lengthAdjust="spacing" textLength="195" x="205.77" y="332.1498">aws_sagemaker_image</text></g><!--class aws_sagemaker_user_profile--><g id="elem_aws_sagemaker_user_profile"><rect codeLine="32" fill="#3D176E" height="39.7891" id="aws_sagemaker_user_profile" rx="2.5" ry="2.5" style="stroke:#000D19;stroke-width:0.5;" width="283" x="51.77" y="106.79"/><ellipse cx="66.77" cy="126.6845" fill="#ADD1B2" rx="11" ry="11" style="stroke:#181818;stroke-width:1.0;"/><path d="M69.7388,132.3252 Q69.1606,132.622 68.52,132.7627 Q67.8794,132.9189 67.1763,132.9189 Q64.6763,132.9189 63.3481,131.2783 Q62.0356,129.622 62.0356,126.497 Q62.0356,123.372 63.3481,121.7158 Q64.6763,120.0595 67.1763,120.0595 Q67.8794,120.0595 68.52,120.2158 Q69.1763,120.372 69.7388,120.6689 L69.7388,123.3877 Q69.1138,122.8095 68.52,122.5439 Q67.9263,122.2627 67.3013,122.2627 Q65.9575,122.2627 65.27,123.3408 Q64.5825,124.4033 64.5825,126.497 Q64.5825,128.5908 65.27,129.6689 Q65.9575,130.7314 67.3013,130.7314 Q67.9263,130.7314 68.52,130.4658 Q69.1138,130.1845 69.7388,129.6064 L69.7388,132.3252 Z " fill="#000000"/><text fill="#D9B8FF" font-family="Helvetica" font-size="17" lengthAdjust="spacing" textLength="241" x="85.77" y="132.5698">aws_sagemaker_user_profile</text></g><!--link aws_sagemaker_app to aws_sagemaker_image--><g id="link_aws_sagemaker_app_aws_sagemaker_image"><path codeLine="35" d="M212.44,246.8 C229.44,263.94 249.936,284.5888 266.926,301.7288 " fill="none" id="aws_sagemaker_app-to-aws_sagemaker_image" style="stroke:#1A83AF;stroke-width:2.0;"/><polygon fill="#1A83AF" points="271.15,305.99,267.6549,296.7822,267.63,302.439,261.9732,302.4141,271.15,305.99" style="stroke:#1A83AF;stroke-width:2.0;"/></g><!--link aws_sagemaker_domain to aws_sagemaker_app--><g id="link_aws_sagemaker_domain_aws_sagemaker_app"><path codeLine="36" d="M126.21,47.27 C70.98,66.94 6,100.99 34.27,146.58 C52.3,175.65 78.9904,192.1849 109.7804,204.0349 " fill="none" id="aws_sagemaker_domain-to-aws_sagemaker_app" style="stroke:#1A83AF;stroke-width:2.0;"/><polygon fill="#1A83AF" points="115.38,206.19,108.4173,199.2243,110.7137,204.3941,105.5439,206.6904,115.38,206.19" style="stroke:#1A83AF;stroke-width:2.0;"/></g><!--link aws_sagemaker_domain to aws_sagemaker_image--><g id="link_aws_sagemaker_domain_aws_sagemaker_image"><path codeLine="37" d="M271.17,47.18 C301.96,59.03 334.25,77.72 352.27,106.79 C393.11,172.63 338.2853,261.2868 308.9353,301.1868 " fill="none" id="aws_sagemaker_domain-to-aws_sagemaker_image" style="stroke:#1A83AF;stroke-width:2.0;"/><polygon fill="#1A83AF" points="305.38,306.02,313.9351,301.1403,308.3427,301.9923,307.4908,296.4,305.38,306.02" style="stroke:#1A83AF;stroke-width:2.0;"/></g><!--link aws_sagemaker_domain to aws_sagemaker_user_profile--><g id="link_aws_sagemaker_domain_aws_sagemaker_user_profile"><path codeLine="38" d="M193.27,47.22 C193.27,64.36 193.27,83.28 193.27,100.41 " fill="none" id="aws_sagemaker_domain-to-aws_sagemaker_user_profile" style="stroke:#1A83AF;stroke-width:2.0;"/><polygon fill="#1A83AF" points="193.27,106.41,197.27,97.41,193.27,101.41,189.27,97.41,193.27,106.41" style="stroke:#1A83AF;stroke-width:2.0;"/></g><!--link aws_sagemaker_user_profile to aws_sagemaker_app--><g id="link_aws_sagemaker_user_profile_aws_sagemaker_app"><path codeLine="39" d="M193.27,147.01 C193.27,164.15 193.27,183.06 193.27,200.2 " fill="none" id="aws_sagemaker_user_profile-to-aws_sagemaker_app" style="stroke:#1A83AF;stroke-width:2.0;"/><polygon fill="#1A83AF" points="193.27,206.2,197.27,197.2,193.27,201.2,189.27,197.2,193.27,206.2" style="stroke:#1A83AF;stroke-width:2.0;"/></g><!--SRC=[dP1VIyCm5CNV-oa2Unwi3jtw8dI3eIz3d6yYuxQvwKARfDnaZYb-Trit9VRVq9SGSdwvvvoxanmPgj8TcKAL8Dd0vbANGA1OJ6GEIrCOOYCXG4ndJN5bjBi8h44XkyFY5PrCeKayxMIQQxIMNNdI0j8y8xFN_3JU4MXRIQYTHoqBi3PsZcIoT-Y5uL4o5w99DeUEfZoStM0BCyIHpiXaCk5Xr4GkMWts_Y4syWrPw2zjRHosOhOilgZ1b3NXXMmL_TPxCpu0vr9dxDfxUpnb8etqwtsp0suEDIsWiBwDTKXetB74PQiLHdCkPftmVHySfFNg61piraA62dAaBPGbUm-2ZqwH6mLIz-jILTT-UM-heoGZP76csjxZvr4OpwVnwcLyspKzw4mqyAiQ-kS__tFowmK3pI-4_GG0]--></g></svg>

<svg xmlns="http://www.w3.org/2000/svg" width="415" height="352" viewBox="0 0 415 352"><rect width="215" height="39.789" x="85.77" y="206.58" fill="#3D176E" rx="2.5" ry="2.5" style="stroke:#000d19;stroke-width:.5"/><circle cx="100.77" cy="226.475" r="11" fill="#ADD1B2" style="stroke:#181818;stroke-width:1"/><path d="M103.739 232.115q-.578.297-1.219.438-.64.156-1.344.156-2.5 0-3.828-1.64-1.312-1.657-1.312-4.782t1.312-4.781q1.328-1.656 3.828-1.656.703 0 1.344.156.656.156 1.219.453v2.719q-.625-.578-1.219-.844-.594-.281-1.219-.281-1.344 0-2.031 1.078-.687 1.062-.687 3.156t.687 3.172q.688 1.062 2.031 1.062.625 0 1.219-.265.594-.281 1.219-.86z"/><text x="119.77" y="232.36" fill="#D9B8FF" font-family="Helvetica" font-size="17" textLength="173">aws_sagemaker_app</text><rect width="248" height="39.789" x="69.27" y="7" fill="#3D176E" rx="2.5" ry="2.5" style="stroke:#000d19;stroke-width:.5"/><circle cx="84.27" cy="26.895" r="11" fill="#ADD1B2" style="stroke:#181818;stroke-width:1"/><path d="M87.239 32.535q-.578.297-1.219.438-.64.156-1.344.156-2.5 0-3.828-1.64-1.312-1.657-1.312-4.782t1.312-4.781q1.328-1.656 3.828-1.656.703 0 1.344.156.656.156 1.219.453v2.719q-.625-.578-1.219-.844-.594-.281-1.219-.281-1.344 0-2.031 1.078-.687 1.062-.687 3.156t.687 3.172q.688 1.062 2.031 1.062.625 0 1.219-.265.594-.281 1.219-.86z"/><text x="103.27" y="32.78" fill="#D9B8FF" font-family="Helvetica" font-size="17" textLength="206">aws_sagemaker_domain</text><rect width="237" height="39.789" x="171.77" y="306.37" fill="#3D176E" rx="2.5" ry="2.5" style="stroke:#000d19;stroke-width:.5"/><circle cx="186.77" cy="326.264" r="11" fill="#ADD1B2" style="stroke:#181818;stroke-width:1"/><path d="M189.739 331.905q-.578.297-1.219.438-.64.156-1.344.156-2.5 0-3.828-1.64-1.312-1.657-1.312-4.782t1.312-4.781q1.328-1.656 3.828-1.656.703 0 1.344.156.656.156 1.219.453v2.719q-.625-.579-1.219-.844-.594-.281-1.219-.281-1.343 0-2.031 1.078-.687 1.062-.687 3.156t.687 3.172q.688 1.062 2.031 1.062.625 0 1.219-.265.594-.281 1.219-.86z"/><text x="205.77" y="332.15" fill="#D9B8FF" font-family="Helvetica" font-size="17" textLength="195">aws_sagemaker_image</text><rect width="283" height="39.789" x="51.77" y="106.79" fill="#3D176E" rx="2.5" ry="2.5" style="stroke:#000d19;stroke-width:.5"/><circle cx="66.77" cy="126.684" r="11" fill="#ADD1B2" style="stroke:#181818;stroke-width:1"/><path d="M69.739 132.325q-.578.297-1.219.438-.64.156-1.344.156-2.5 0-3.828-1.64-1.312-1.657-1.312-4.782t1.312-4.781q1.328-1.656 3.828-1.656.703 0 1.344.156.656.156 1.219.453v2.719q-.625-.579-1.219-.844-.594-.281-1.219-.281-1.344 0-2.031 1.078-.687 1.062-.687 3.156t.687 3.172q.688 1.062 2.031 1.062.625 0 1.219-.265.594-.281 1.219-.86z"/><text x="85.77" y="132.57" fill="#D9B8FF" font-family="Helvetica" font-size="17" textLength="241">aws_sagemaker_user_profile</text><path fill="none" d="M212.44 246.8c17 17.14 37.496 37.789 54.486 54.929" style="stroke:#1a83af;stroke-width:2"/><path fill="#1A83AF" d="m271.15 305.99-3.495-9.208-.025 5.657-5.657-.025z" style="stroke:#1a83af;stroke-width:2"/><path fill="none" d="M126.21 47.27C70.98 66.94 6 100.99 34.27 146.58c18.03 29.07 44.72 45.605 75.51 57.455" style="stroke:#1a83af;stroke-width:2"/><path fill="#1A83AF" d="m115.38 206.19-6.963-6.966 2.297 5.17-5.17 2.296z" style="stroke:#1a83af;stroke-width:2"/><path fill="none" d="M271.17 47.18c30.79 11.85 63.08 30.54 81.1 59.61 40.84 65.84-13.985 154.497-43.335 194.397" style="stroke:#1a83af;stroke-width:2"/><path fill="#1A83AF" d="m305.38 306.02 8.555-4.88-5.592.852-.852-5.592z" style="stroke:#1a83af;stroke-width:2"/><path fill="none" d="M193.27 47.22v53.19" style="stroke:#1a83af;stroke-width:2"/><path fill="#1A83AF" d="m193.27 106.41 4-9-4 4-4-4z" style="stroke:#1a83af;stroke-width:2"/><path fill="none" d="M193.27 147.01v53.19" style="stroke:#1a83af;stroke-width:2"/><path fill="#1A83AF" d="m193.27 206.2 4-9-4 4-4-4z" style="stroke:#1a83af;stroke-width:2"/></svg>
